X: 1
T: Money Musk
O: Henry Ford version
B: A Henry Ford dance collection
R: reel
Z: 2010 John Chambers <jc:trillian.mit.edu>
M: 2/4
L: 1/16
K: A
f |\
"A"eAcA eA"D"df | "A"eAcA "E7"Bcdf |\
"A"eAcA e(aga) | "Bm"fd"E7"Be "A"(cA)A :|
|: e |\
"A"aeca eace | "A"ae"E7"db caBg |\
"A"aecA e(aga) | "Bm"fd"E7"Be "A"(cA)A :|
|: B |\
"A"c2(cA) "E7"d2dB | "A"c2(cA) "E7"B2((3BcB) |\
"A"ABcd e(aga) | "E7"gefg [1 "A"a2A :|2 "A"a2z ||
|: z |\
"A"Aceg [a2c2][a2c2] | "A"Aceg "E7"[b2d2][b2d2] |\
"A"Aceg a2aa | "E7"gefg "A"a2z :|
